public/images/well/outline/2.svg

<svg width="100%" height="100%" preserveAspectRatio="none" viewBox="0 0 180 180" fill="none" xmlns="http://www.w3.org/2000/svg">
<path fill-rule="evenodd" clip-rule="evenodd" d="M180 0H0V180H180V0ZM89.9921 136.501L74.7446 148.859C69.1589 153.387 62.3706 155.777 55.106 155.777C38.0666 155.777 24.2074 142.151 24.2074 125.411C24.2074 116.209 28.1787 109.671 31.5123 105.804L45.1455 89.9918L31.5123 74.1792C28.1787 70.3129 24.2074 63.7747 24.2074 54.573C24.2074 37.8321 38.0666 24.207 55.106 24.207C62.3706 24.207 69.1589 26.5963 74.7446 31.1245L89.9921 43.4824L105.24 31.1245C110.825 26.5963 117.614 24.207 124.878 24.207C141.918 24.207 155.777 37.8321 155.777 54.573C155.777 63.7747 151.806 70.3129 148.472 74.1792L134.839 89.9918L148.472 105.804C151.806 109.671 155.777 116.209 155.777 125.411C155.777 142.151 141.918 155.777 124.878 155.777C117.614 155.777 110.825 153.387 105.24 148.859L89.9921 136.501Z" fill="white"/>
<path d="M180 54.5812C180 24.4332 155.325 0 124.886 0C111.648 0 99.5004 4.62511 90 12.3256C80.4995 4.62511 68.3516 0 55.1139 0C24.6753 0 0 24.4332 0 54.5812C0 68.1013 4.96414 80.4673 13.1812 90C4.96414 99.5327 0 111.899 0 125.419C0 155.567 24.6753 180 55.1139 180C68.3516 180 80.4995 175.375 90 167.674C99.5004 175.375 111.648 180 124.886 180C155.325 180 180 155.567 180 125.419C180 111.899 175.036 99.5327 166.819 90C175.036 80.4673 180 68.1013 180 54.5812ZM124.886 155.785C117.622 155.785 110.833 153.396 105.248 148.867L90 136.509L74.7525 148.867C69.1668 153.396 62.3785 155.785 55.1139 155.785C38.0744 155.785 24.2152 142.16 24.2152 125.419C24.2152 116.217 28.1866 109.679 31.5202 105.813L45.1534 90L31.5202 74.1874C28.1866 70.3211 24.2152 63.783 24.2152 54.5812C24.2152 37.8404 38.0744 24.2152 55.1139 24.2152C62.3785 24.2152 69.1668 26.6045 74.7525 31.1327L90 43.4906L105.248 31.1327C110.833 26.6045 117.622 24.2152 124.886 24.2152C141.926 24.2152 155.785 37.8404 155.785 54.5812C155.785 63.783 151.813 70.3211 148.48 74.1874L134.847 90L148.48 105.813C151.813 109.679 155.785 116.217 155.785 125.419C155.785 142.16 141.926 155.785 124.886 155.785Z" fill="current"/>
<mask id="mask0_3125_6062" style="mask-type:luminance" maskUnits="userSpaceOnUse" x="0" y="0" width="180" height="180">
<path d="M124.886 155.785C141.926 155.785 155.785 142.16 155.785 125.419C155.785 116.217 151.813 109.679 148.48 105.813L134.847 90L148.48 74.1874C151.813 70.3211 155.785 63.783 155.785 54.5812C155.785 37.8404 141.926 24.2152 124.886 24.2152C117.622 24.2152 110.833 26.6045 105.248 31.1327L90 43.4906L74.7525 31.1327C69.1668 26.6045 62.3785 24.2152 55.1139 24.2152C38.0744 24.2152 24.2152 37.8404 24.2152 54.5812C24.2152 63.783 28.1866 70.3211 31.5202 74.1874L45.1534 90L31.5202 105.813C28.1866 109.679 24.2152 116.217 24.2152 125.419C24.2152 142.16 38.0744 155.785 55.1139 155.785C62.3785 155.785 69.1668 153.396 74.7525 148.867L90 136.509L105.248 148.867C110.833 153.396 117.622 155.785 124.886 155.785ZM124.886 180C111.648 180 99.5004 175.375 90 167.674C80.4995 175.375 68.3516 180 55.1139 180C24.6753 180 0 155.567 0 125.419C0 111.899 4.96414 99.5327 13.1812 90C4.96414 80.4673 0 68.1013 0 54.5812C0 24.4332 24.6753 0 55.1139 0C68.3516 0 80.4995 4.62511 90 12.3256C99.5004 4.62511 111.648 0 124.886 0C155.325 0 180 24.4332 180 54.5812C180 68.1013 175.036 80.4673 166.819 90C175.036 99.5327 180 111.899 180 125.419C180 155.567 155.325 180 124.886 180Z" fill="current"/>
</mask>
<g mask="url(#mask0_3125_6062)">
<path opacity='0.5' d="M90.0003 90.0008V-47.1221" stroke="white" stroke-miterlimit="10"/>
<path opacity='0.5' d="M90.0006 90.0015L78.0464 -46.5967" stroke="white" stroke-miterlimit="10"/>
<path opacity='0.5' d="M90.0003 90.0013L66.1886 -45.0391" stroke="white" stroke-miterlimit="10"/>
<path opacity='0.5' d="M90.0005 90.0011L54.509 -42.4482" stroke="white" stroke-miterlimit="10"/>
<path opacity='0.5' d="M90.0008 90.0007L43.0959 -38.8486" stroke="white" stroke-miterlimit="10"/>
<path opacity='0.5' d="M90.0004 90.0012L32.0453 -34.2715" stroke="white" stroke-miterlimit="10"/>
<path opacity='0.5' d="M90.0007 90.0006L21.4393 -28.751" stroke="white" stroke-miterlimit="10"/>
<path opacity='0.5' d="M90.0007 90.0003L11.3496 -22.3262" stroke="white" stroke-miterlimit="10"/>
<path opacity='0.5' d="M90.0001 90.0006L1.85663 -15.0371" stroke="white" stroke-miterlimit="10"/>
<path opacity='0.5' d="M90.0002 90.0008L-6.95767 -6.95703" stroke="white" stroke-miterlimit="10"/>
<path opacity='0.5' d="M90.0006 90.0009L-15.0452 1.85742" stroke="white" stroke-miterlimit="10"/>
<path opacity='0.5' d="M90.0002 90.0007L-22.3263 11.3496" stroke="white" stroke-miterlimit="10"/>
<path opacity='0.5' d="M90.0002 90.0009L-28.7514 21.4395" stroke="white" stroke-miterlimit="10"/>
<path opacity='0.5' d="M90.0003 90.0011L-34.2723 32.0459" stroke="white" stroke-miterlimit="10"/>
<path opacity='0.5' d="M90.0004 90.0014L-38.849 43.1045" stroke="white" stroke-miterlimit="10"/>
<path opacity='0.5' d="M90.0004 90.0012L-42.4489 54.5098" stroke="white" stroke-miterlimit="10"/>
<path opacity='0.5' d="M90.0004 90.0011L-45.0399 66.1895" stroke="white" stroke-miterlimit="10"/>
<path opacity='0.5' d="M90.0007 90.0011L-46.5975 78.0469" stroke="white" stroke-miterlimit="10"/>
<path opacity='0.5' d="M90.0004 90.001H-47.1225" stroke="white" stroke-miterlimit="10"/>
<path opacity='0.5' d="M90.0007 90.001L-46.5975 101.947" stroke="white" stroke-miterlimit="10"/>
<path opacity='0.5' d="M90.0004 90.001L-45.0399 113.813" stroke="white" stroke-miterlimit="10"/>
<path opacity='0.5' d="M90.0004 90.001L-42.4489 125.484" stroke="white" stroke-miterlimit="10"/>
<path opacity='0.5' d="M90.0004 90.001L-38.849 136.898" stroke="white" stroke-miterlimit="10"/>
<path opacity='0.5' d="M90.0003 90.001L-34.2723 147.948" stroke="white" stroke-miterlimit="10"/>
<path opacity='0.5' d="M90.0002 90.001L-28.7514 158.554" stroke="white" stroke-miterlimit="10"/>
<path opacity='0.5' d="M90.0002 90.001L-22.3263 168.644" stroke="white" stroke-miterlimit="10"/>
<path opacity='0.5' d="M90.0006 90.001L-15.0452 178.136" stroke="white" stroke-miterlimit="10"/>
<path opacity='0.5' d="M90.0002 90.001L-6.95767 186.959" stroke="white" stroke-miterlimit="10"/>
<path opacity='0.5' d="M90.0001 90.001L1.85663 195.039" stroke="white" stroke-miterlimit="10"/>
<path opacity='0.5' d="M90.0007 90.001L11.3496 202.319" stroke="white" stroke-miterlimit="10"/>
<path opacity='0.5' d="M90.0007 90.001L21.4393 208.744" stroke="white" stroke-miterlimit="10"/>
<path opacity='0.5' d="M90.0004 90.001L32.0453 214.274" stroke="white" stroke-miterlimit="10"/>
<path opacity='0.5' d="M90.0008 90.001L43.0959 218.85" stroke="white" stroke-miterlimit="10"/>
<path opacity='0.5' d="M90.0005 90.001L54.509 222.442" stroke="white" stroke-miterlimit="10"/>
<path opacity='0.5' d="M90.0003 90.001L66.1886 225.033" stroke="white" stroke-miterlimit="10"/>
<path opacity='0.5' d="M90.0006 90.001L78.0464 226.591" stroke="white" stroke-miterlimit="10"/>
<path opacity='0.5' d="M90.0003 90.001V227.116" stroke="white" stroke-miterlimit="10"/>
<path opacity='0.5' d="M90.0003 90.001L101.946 226.591" stroke="white" stroke-miterlimit="10"/>
<path opacity='0.5' d="M90.0003 90.001L113.804 225.033" stroke="white" stroke-miterlimit="10"/>
<path opacity='0.5' d="M90.0003 90.001L125.484 222.442" stroke="white" stroke-miterlimit="10"/>
<path opacity='0.5' d="M90.0003 90.001L136.897 218.85" stroke="white" stroke-miterlimit="10"/>
<path opacity='0.5' d="M90.0003 90.001L147.947 214.274" stroke="white" stroke-miterlimit="10"/>
<path opacity='0.5' d="M90.0003 90.001L158.554 208.744" stroke="white" stroke-miterlimit="10"/>
<path opacity='0.5' d="M90.0003 90.001L168.643 202.319" stroke="white" stroke-miterlimit="10"/>
<path opacity='0.5' d="M90.0003 90.001L178.136 195.039" stroke="white" stroke-miterlimit="10"/>
<path opacity='0.5' d="M90.0003 90.001L186.95 186.959" stroke="white" stroke-miterlimit="10"/>
<path opacity='0.5' d="M90.0003 90.001L195.038 178.136" stroke="white" stroke-miterlimit="10"/>
<path opacity='0.5' d="M90.0003 90.001L202.319 168.644" stroke="white" stroke-miterlimit="10"/>
<path opacity='0.5' d="M90.0003 90.001L208.744 158.554" stroke="white" stroke-miterlimit="10"/>
<path opacity='0.5' d="M90.0003 90.001L214.265 147.948" stroke="white" stroke-miterlimit="10"/>
<path opacity='0.5' d="M90.0003 90.001L218.842 136.898" stroke="white" stroke-miterlimit="10"/>
<path opacity='0.5' d="M90.0003 90.001L222.442 125.484" stroke="white" stroke-miterlimit="10"/>
<path opacity='0.5' d="M90.0003 90.001L225.033 113.813" stroke="white" stroke-miterlimit="10"/>
<path opacity='0.5' d="M90.0003 90.001L226.59 101.947" stroke="white" stroke-miterlimit="10"/>
<path opacity='0.5' d="M90.0003 90.001H227.115" stroke="white" stroke-miterlimit="10"/>
<path opacity='0.5' d="M90.0003 90.0011L226.59 78.0469" stroke="white" stroke-miterlimit="10"/>
<path opacity='0.5' d="M90.0003 90.0011L225.033 66.1895" stroke="white" stroke-miterlimit="10"/>
<path opacity='0.5' d="M90.0003 90.0012L222.442 54.5098" stroke="white" stroke-miterlimit="10"/>
<path opacity='0.5' d="M90.0003 90.0014L218.842 43.1045" stroke="white" stroke-miterlimit="10"/>
<path opacity='0.5' d="M90.0003 90.0011L214.265 32.0459" stroke="white" stroke-miterlimit="10"/>
<path opacity='0.5' d="M90.0003 90.0009L208.744 21.4395" stroke="white" stroke-miterlimit="10"/>
<path opacity='0.5' d="M90.0003 90.0007L202.319 11.3496" stroke="white" stroke-miterlimit="10"/>
<path opacity='0.5' d="M90.0003 90.0009L195.038 1.85742" stroke="white" stroke-miterlimit="10"/>
<path opacity='0.5' d="M90.0003 90.0008L186.95 -6.95703" stroke="white" stroke-miterlimit="10"/>
<path opacity='0.5' d="M90.0003 90.0006L178.136 -15.0371" stroke="white" stroke-miterlimit="10"/>
<path opacity='0.5' d="M90.0003 90.0003L168.643 -22.3262" stroke="white" stroke-miterlimit="10"/>
<path opacity='0.5' d="M90.0003 90.0006L158.554 -28.751" stroke="white" stroke-miterlimit="10"/>
<path opacity='0.5' d="M90.0003 90.0012L147.947 -34.2715" stroke="white" stroke-miterlimit="10"/>
<path opacity='0.5' d="M90.0003 90.0007L136.897 -38.8486" stroke="white" stroke-miterlimit="10"/>
<path opacity='0.5' d="M90.0003 90.0011L125.484 -42.4482" stroke="white" stroke-miterlimit="10"/>
<path opacity='0.5' d="M90.0003 90.0013L113.804 -45.0391" stroke="white" stroke-miterlimit="10"/>
<path opacity='0.5' d="M90.0003 90.0015L101.946 -46.5967" stroke="white" stroke-miterlimit="10"/>
</g>
</svg>

<svg xmlns="http://www.w3.org/2000/svg" fill="none" preserveAspectRatio="none" viewBox="0 0 180 180"><path fill="#fff" fill-rule="evenodd" d="M180 0H0v180h180V0ZM89.992 136.501l-15.247 12.358c-5.586 4.528-12.374 6.918-19.639 6.918-17.04 0-30.899-13.626-30.899-30.366 0-9.202 3.972-15.74 7.305-19.607l13.633-15.812-13.633-15.813c-3.333-3.866-7.305-10.404-7.305-19.606 0-16.74 13.86-30.366 30.899-30.366 7.265 0 14.053 2.39 19.639 6.918l15.247 12.357 15.248-12.357c5.585-4.529 12.374-6.918 19.638-6.918 17.04 0 30.899 13.625 30.899 30.366 0 9.202-3.971 15.74-7.305 19.606l-13.633 15.813 13.633 15.812c3.334 3.867 7.305 10.405 7.305 19.607 0 16.74-13.859 30.366-30.899 30.366-7.264 0-14.053-2.39-19.638-6.918l-15.248-12.358Z" clip-rule="evenodd"/><path fill="current" d="M180 54.581C180 24.433 155.325 0 124.886 0 111.648 0 99.5 4.625 90 12.326 80.5 4.626 68.352 0 55.114 0 24.675 0 0 24.433 0 54.581 0 68.101 4.964 80.467 13.181 90 4.964 99.533 0 111.899 0 125.419 0 155.567 24.675 180 55.114 180 68.352 180 80.5 175.375 90 167.674 99.5 175.375 111.648 180 124.886 180 155.325 180 180 155.567 180 125.419c0-13.52-4.964-25.886-13.181-35.419C175.036 80.467 180 68.101 180 54.581Zm-55.114 101.204c-7.264 0-14.053-2.389-19.638-6.918L90 136.509l-15.248 12.358c-5.585 4.529-12.373 6.918-19.638 6.918-17.04 0-30.899-13.625-30.899-30.366 0-9.202 3.972-15.74 7.305-19.606L45.153 90 31.52 74.187c-3.333-3.866-7.305-10.404-7.305-19.606 0-16.74 13.86-30.366 30.899-30.366 7.265 0 14.053 2.39 19.639 6.918L90 43.49l15.248-12.358c5.585-4.528 12.374-6.918 19.638-6.918 17.04 0 30.899 13.625 30.899 30.366 0 9.202-3.972 15.74-7.305 19.606L134.847 90l13.633 15.813c3.333 3.866 7.305 10.404 7.305 19.606 0 16.741-13.859 30.366-30.899 30.366Z"/><mask id="a" width="180" height="180" x="0" y="0" maskUnits="userSpaceOnUse" style="mask-type:luminance"><path fill="current" d="M124.886 155.785c17.04 0 30.899-13.625 30.899-30.366 0-9.202-3.972-15.74-7.305-19.606L134.847 90l13.633-15.813c3.333-3.866 7.305-10.404 7.305-19.606 0-16.74-13.859-30.366-30.899-30.366-7.264 0-14.053 2.39-19.638 6.918L90 43.49 74.752 31.133c-5.585-4.528-12.373-6.918-19.638-6.918-17.04 0-30.899 13.625-30.899 30.366 0 9.202 3.972 15.74 7.305 19.606L45.153 90 31.52 105.813c-3.333 3.866-7.305 10.404-7.305 19.606 0 16.741 13.86 30.366 30.899 30.366 7.265 0 14.053-2.389 19.639-6.918L90 136.509l15.248 12.358c5.585 4.529 12.374 6.918 19.638 6.918Zm0 24.215C111.648 180 99.5 175.375 90 167.674 80.5 175.375 68.352 180 55.114 180 24.675 180 0 155.567 0 125.419 0 111.899 4.964 99.533 13.181 90 4.964 80.467 0 68.101 0 54.581 0 24.433 24.675 0 55.114 0 68.352 0 80.5 4.625 90 12.326 99.5 4.626 111.648 0 124.886 0 155.325 0 180 24.433 180 54.581c0 13.52-4.964 25.886-13.181 35.419C175.036 99.533 180 111.899 180 125.419 180 155.567 155.325 180 124.886 180Z"/></mask><g stroke="#fff" stroke-miterlimit="10" mask="url(#a)"><path d="M90 90V-47.121M90 90.001 78.047-46.597M90 90.001 66.19-45.039M90 90.001 54.51-42.449M90 90 43.097-38.848M90 90.001 32.045-34.272M90 90 21.44-28.75M90 90 11.35-22.326M90 90 1.857-15.036M90 90-6.958-6.956M90 90-15.044 1.858M90 90-22.326 11.35M90 90-28.75 21.44M90 90.001-34.272 32.046M90 90.001-38.849 43.104M90 90.001-42.449 54.51M90 90.001-45.04 66.19M90 90.001-46.596 78.047M90 90.001H-47.123M90 90.001l-136.597 11.946M90 90.001l-135.04 23.812M90 90.001l-132.449 35.483M90 90.001l-128.849 46.897M90 90.001l-124.272 57.947M90 90.001-28.75 158.554M90 90.001l-112.326 78.643M90 90.001l-105.045 88.135M90 90.001l-96.958 96.958M90 90.001 1.857 195.039M90 90.001 11.35 202.319M90 90.001 21.44 208.744M90 90.001 32.045 214.274M90 90.001 43.097 218.85M90 90.001 54.51 222.442M90 90.001 66.19 225.033M90 90.001l-11.954 136.59M90 90.001v137.115M90 90.001l11.946 136.59M90 90.001l23.804 135.032M90 90.001l35.484 132.441M90 90.001l46.897 128.849M90 90.001l57.947 124.273M90 90.001l68.554 118.743M90 90.001l78.643 112.318M90 90.001l88.136 105.038M90 90.001l96.95 96.958M90 90.001l105.038 88.135M90 90.001l112.319 78.643M90 90.001l118.744 68.553M90 90.001l124.265 57.947M90 90.001l128.842 46.897M90 90.001l132.442 35.483M90 90.001l135.033 23.812M90 90.001l136.59 11.946M90 90.001h137.115M90 90.001l136.59-11.954M90 90.001 225.033 66.19M90 90.001 222.442 54.51M90 90.001l128.842-46.897M90 90.001l124.265-57.955M90 90l118.744-68.56M90 90 202.32 11.35M90 90 195.038 1.858M90 90l96.95-96.957M90 90l88.136-105.037M90 90l78.643-112.326M90 90 158.554-28.75M90 90.001l57.947-124.273M90 90l46.897-128.849M90 90.001l35.484-132.45M90 90.001l23.804-135.04M90 90.001l11.946-136.598" opacity=".5"/></g></svg>
